assets/img/ods/SDG-9.svg

<svg xmlns="http://www.w3.org/2000/svg" viewBox="0 0 720 720"><defs><style>.cls-2{fill:#fff}</style></defs><path fill="#fd6925" d="M-1.08-1.08h722.16v722.16H-1.08z" id="goal_background" data-name="goal background"/><g id="ENG_text_graphics" data-name="ENG text &amp; graphics"><path class="cls-2" d="M57.16 166.11v-2H82c0 11.56 1.36 17.17 10 17.17 8.33 0 10.2-6.63 10.2-27.88v-13.98c-2.89 4.93-9.35 7.82-17.34 8-22.27.34-29.92-18.19-29.92-41C55 78.56 65 60 92 60c26.18 0 37.06 17.85 37.06 44v50.15c0 26.86-7.65 47.09-37.23 47.09-25.32.06-34.67-12.35-34.67-35.13zm45.05-45.05V99.13c0-10.37-1.7-19.55-10.2-19.55-8.67 0-10.2 8.84-10.2 23.8 0 14.11.17 24 10.37 24 5.27-.03 8.33-3.38 10.03-6.32zM160.2 60.68h9.49v52.65h-9.49zM174.44 60.68h6.69l12.81 30v-30h7.93v52.65h-6.37l-12.87-31.46v31.46h-8.19zM206.48 60.68h12.42c12.8 0 16.7 5.14 16.7 16.38v19.18c0 11.57-4 17.09-16.31 17.09h-12.81zm12.55 46c6.56 0 6.82-3.51 6.82-10.08V76.41c0-6.3-.65-8.9-6.95-8.9H216v39.13zM238.92 96.3V60.68h9.36v36.73c0 5 .58 9.49 5.46 9.49s5.52-4.49 5.52-9.49V60.68h9.3V96.3c0 11-3.06 17.75-14.82 17.75s-14.82-6.7-14.82-17.75zM255 44h9l-7.74 13h-5.13zM271.42 98l8.25-1.62c.26 6.24 1.76 10.27 6 10.27 3.06 0 4.36-2.08 4.36-4.94 0-4.55-2.34-7.09-5.79-10.08l-6.63-5.78c-3.77-3.25-6.11-6.89-6.11-12.74 0-8.32 5.2-13 13.59-13 9.88 0 12.67 6.63 13.19 14.3L290 75.83c-.2-4.94-.91-8.65-5.14-8.65-2.86 0-4.42 2.15-4.42 4.94 0 3.58 1.5 5.53 4.29 7.93l6.57 5.79c4.29 3.7 7.86 8.32 7.86 15.27 0 7.61-5.33 12.94-13.19 12.94-9.61 0-14.16-5.59-14.55-16.05zM306.71 67.77h-8.39v-7.09h26.2v7.09h-8.19v45.56h-9.62zM326 60.68h12.67c10.53 0 16.51 3.38 16.51 14 0 6.3-1.56 10.72-6.5 12.74l7.32 25.91h-9.62l-6.31-24.11h-4.57v24.11H326zm12.61 22.56c5.52 0 7.54-2.41 7.54-8.06 0-5.33-1.5-7.93-7-7.93h-3.65v16zM359.29 60.68h9.49v52.65h-9.49zM381.39 60.68h10.27l10.53 52.65h-8.9l-2.08-12.15H382l-2.14 12.15h-9zm8.78 34.39L386.59 73 383 95.07zM403.3 118.92a5.39 5.39 0 004.22-5.59h-4.68v-8.77h8.65v8c0 5.59-2.41 8.65-7.28 9.56zM427.22 60.68h9.49v52.65h-9.49zM441.45 60.68h6.7l12.8 30v-30h7.93v52.65h-6.37l-12.87-31.46v31.46h-8.19zM472.65 96.82V77.06c0-10.66 3.9-17 15.21-17S503 66.4 503 77.06v19.76c0 10.6-3.9 17.23-15.15 17.23s-15.2-6.57-15.2-17.23zm20.61 2.28V74.85c0-4.42-.72-7.73-5.4-7.73s-5.46 3.31-5.46 7.73V99.1c0 4.35.72 7.86 5.46 7.86s5.4-3.51 5.4-7.86zM504 60.68h8.45l7 37.25L526 60.68h8.65L524 113.33h-9.42zM542.52 60.68h10.28l10.53 52.65h-8.91l-2.08-12.15h-9.17L541 113.33h-9zm8.78 34.39L547.73 73l-3.58 22.1zM584.06 79.66v-4.55c0-4.42-.06-8-4.94-8s-5.39 3.77-5.39 8.58v22.82c0 5.72 1.17 8.45 5.39 8.45 4.75 0 4.94-3.7 4.94-8.38v-4.75h9.23v4.23c0 8.9-2.86 15.47-12.93 16v3.25c4.81 0 8.06 2.14 8.06 6.17 0 4.62-4.1 6.57-8.84 6.57a16.52 16.52 0 01-4.68-.72v-4.09a11.83 11.83 0 003.51.52c2.27 0 4-.65 4-2.41 0-2.34-2.66-3.18-5.72-3.51v-5.91C567 112.94 564 106 564 96.5V77.71c0-10.79 3.44-17.61 15-17.61 10.79 0 14.23 6 14.23 15.14v4.42zM604.47 60.68h10.27l10.53 52.65h-8.9l-2.08-12.15h-9.17L603 113.33h-9zm2-9.94c-1.69 0-2.27 1-2.27 2.66h-4.55c0-4.68 1.3-8.19 5.52-8.19 3.19 0 5.33 3 8.13 3 1.5 0 2.08-.91 2.08-2.6h4.29c0 4.1-.71 8.19-4.94 8.19-3.37-.01-5.58-3.06-8.25-3.06zm6.77 44.33L609.67 73l-3.58 22.1zM625.79 96.82V77.06c0-10.66 3.9-17 15.21-17s15.14 6.3 15.14 17v19.76c0 10.6-3.9 17.23-15.14 17.23s-15.21-6.57-15.21-17.23zm20.6 2.28V74.85c0-4.42-.71-7.73-5.39-7.73s-5.46 3.31-5.46 7.73V99.1c0 4.35.71 7.86 5.46 7.86s5.39-3.51 5.39-7.86zM159.94 146.68H182v6.76h-12.5v15.15h9.88v6.69h-9.88v17.49h12.67v6.56h-22.23zM197.06 146.68h9.49v52.65h-9.49zM211.29 146.68H218l12.8 30v-30h7.93v52.65h-6.37l-12.87-31.46v31.46h-8.19zM243.34 146.68H265v6.63h-12.11v15.34h9.88v6.7h-9.88v24h-9.55zM266.8 146.68h12.68c10.53 0 16.51 3.38 16.51 14 0 6.3-1.56 10.72-6.5 12.74l7.34 25.93h-9.62l-6.3-24.11h-4.55v24.11h-9.56zm12.61 22.56c5.53 0 7.54-2.41 7.54-8.06 0-5.33-1.49-7.93-7-7.93h-3.57v16zM307.75 146.68H318l10.53 52.65h-8.9l-2.08-12.15h-9.15l-2.15 12.15h-9zm8.78 34.39L313 159l-3.57 22.1zM330.43 146.68h22.1v6.76H340v15.15h9.88v6.69H340v17.49h12.67v6.56h-22.24zM353.57 184l8.26-1.62c.26 6.24 1.75 10.27 6 10.27 3.05 0 4.35-2.08 4.35-4.94 0-4.55-2.34-7.09-5.78-10.08l-6.63-5.78c-3.77-3.25-6.11-6.89-6.11-12.74 0-8.32 5.2-13 13.58-13 9.88 0 12.68 6.63 13.2 14.3l-8.26 1.43c-.19-4.94-.91-8.65-5.13-8.65-2.86 0-4.42 2.15-4.42 4.94 0 3.58 1.49 5.53 4.29 7.93l6.56 5.79c4.29 3.7 7.87 8.32 7.87 15.27 0 7.61-5.33 12.94-13.2 12.94-9.64-.01-14.15-5.6-14.58-16.06zM388.87 153.77h-8.39v-7.09h26.2v7.09h-8.19v45.56h-9.62zM408.11 146.68h12.67c10.53 0 16.51 3.38 16.51 14 0 6.3-1.56 10.72-6.5 12.74l7.35 25.93h-9.62l-6.31-24.11h-4.55v24.11h-9.55zm12.61 22.56c5.52 0 7.54-2.41 7.54-8.06 0-5.33-1.5-7.93-7-7.93h-3.58v16zM440.61 182.3v-35.62H450v36.73c0 5 .58 9.49 5.46 9.49s5.52-4.49 5.52-9.49v-36.73h9.3v35.62c0 11-3.06 17.75-14.82 17.75s-14.85-6.7-14.85-17.75zM479.67 153.77h-8.38v-7.09h26.19v7.09h-8.19v45.56h-9.62zM498.52 182.3v-35.62h9.36v36.73c0 5 .59 9.49 5.46 9.49s5.53-4.49 5.53-9.49v-36.73h9.29v35.62c0 11-3 17.75-14.82 17.75s-14.82-6.7-14.82-17.75zM532.32 146.68H545c10.53 0 16.51 3.38 16.51 14 0 6.3-1.56 10.72-6.5 12.74l7.34 25.93h-9.62l-6.3-24.11h-4.55v24.11h-9.56zm12.61 22.56c5.53 0 7.54-2.41 7.54-8.06 0-5.33-1.49-7.93-7-7.93h-3.57v16zM573.27 146.68h10.27l10.53 52.65h-8.9l-2.08-12.15h-9.17l-2.15 12.15h-9zm8.73 34.39L578.47 159l-3.58 22.1zM545.32 474.1l-86.24-49.77v-99.57a5.88 5.88 0 00-2.94-5.1L367 268.18a5.88 5.88 0 00-5.88 0l-89.17 51.48a5.86 5.86 0 00-2.94 5.1v99.57l-86.25 49.77a5.85 5.85 0 00-2.94 5.09v103a5.86 5.86 0 002.94 5.1l89.17 51.47a5.87 5.87 0 005.88 0L364 589l86.22 49.77a5.92 5.92 0 002.94.79 5.82 5.82 0 002.94-.79l89.18-51.47a5.86 5.86 0 002.94-5.1v-103a5.85 5.85 0 00-2.9-5.1zM358.16 572l-71.53-41.29 71.53-41.3zm83.27-144.25L369.92 469v-82.57zM358.16 469l-71.52-41.28 71.52-41.3zm17.65 10.19l77.39-44.68 77.41 44.67-77.41 44.7zm71.51-61.67l-71.51-41.29L447.32 335zm-95.05-41.29l-71.52 41.3V335zM269 623.46l-77.41-44.68v-89.39L269 534.08zm11.76 0v-82.58l71.52 41.29zm255.74-44.68l-77.42 44.68v-89.38l77.42-44.69z"/></g></svg>

<svg width="720" height="720" viewBox="0 0 720 720" fill="none" xmlns="http://www.w3.org/2000/svg">
<g clip-path="url(#clip0_342_78)">
<path d="M-1.08008 -1.08008H721.08V721.08H-1.08008V-1.08008Z" fill="#BBBBBB"/>
<path d="M57.1599 166.11V164.11H81.9999C81.9999 175.67 83.3599 181.28 91.9999 181.28C100.33 181.28 102.2 174.65 102.2 153.4V139.42C99.3099 144.35 92.8499 147.24 84.8599 147.42C62.5899 147.76 54.9399 129.23 54.9399 106.42C54.9999 78.56 64.9999 60 91.9999 60C118.18 60 129.06 77.85 129.06 104V154.15C129.06 181.01 121.41 201.24 91.8299 201.24C66.5099 201.3 57.1599 188.89 57.1599 166.11ZM102.21 121.06V99.13C102.21 88.76 100.51 79.58 92.0099 79.58C83.3399 79.58 81.8099 88.42 81.8099 103.38C81.8099 117.49 81.9799 127.38 92.1799 127.38C97.4499 127.35 100.51 124 102.21 121.06ZM160.2 60.68H169.69V113.33H160.2V60.68ZM174.44 60.68H181.13L193.94 90.68V60.68H201.87V113.33H195.5L182.63 81.87V113.33H174.44V60.68ZM206.48 60.68H218.9C231.7 60.68 235.6 65.82 235.6 77.06V96.24C235.6 107.81 231.6 113.33 219.29 113.33H206.48V60.68ZM219.03 106.68C225.59 106.68 225.85 103.17 225.85 96.6V76.41C225.85 70.11 225.2 67.51 218.9 67.51H216V106.64L219.03 106.68ZM238.92 96.3V60.68H248.28V97.41C248.28 102.41 248.86 106.9 253.74 106.9C258.62 106.9 259.26 102.41 259.26 97.41V60.68H268.56V96.3C268.56 107.3 265.5 114.05 253.74 114.05C241.98 114.05 238.92 107.35 238.92 96.3ZM255 44H264L256.26 57H251.13L255 44ZM271.42 98L279.67 96.38C279.93 102.62 281.43 106.65 285.67 106.65C288.73 106.65 290.03 104.57 290.03 101.71C290.03 97.16 287.69 94.62 284.24 91.63L277.61 85.85C273.84 82.6 271.5 78.96 271.5 73.11C271.5 64.79 276.7 60.11 285.09 60.11C294.97 60.11 297.76 66.74 298.28 74.41L290 75.83C289.8 70.89 289.09 67.18 284.86 67.18C282 67.18 280.44 69.33 280.44 72.12C280.44 75.7 281.94 77.65 284.73 80.05L291.3 85.84C295.59 89.54 299.16 94.16 299.16 101.11C299.16 108.72 293.83 114.05 285.97 114.05C276.36 114.05 271.81 108.46 271.42 98ZM306.71 67.77H298.32V60.68H324.52V67.77H316.33V113.33H306.71V67.77ZM326 60.68H338.67C349.2 60.68 355.18 64.06 355.18 74.68C355.18 80.98 353.62 85.4 348.68 87.42L356 113.33H346.38L340.07 89.22H335.5V113.33H326V60.68ZM338.61 83.24C344.13 83.24 346.15 80.83 346.15 75.18C346.15 69.85 344.65 67.25 339.15 67.25H335.5V83.25L338.61 83.24ZM359.29 60.68H368.78V113.33H359.29V60.68ZM381.39 60.68H391.66L402.19 113.33H393.29L391.21 101.18H382L379.86 113.33H370.86L381.39 60.68ZM390.17 95.07L386.59 73L383 95.07H390.17ZM403.3 118.92C404.554 118.644 405.668 117.929 406.442 116.904C407.215 115.879 407.598 114.612 407.52 113.33H402.84V104.56H411.49V112.56C411.49 118.15 409.08 121.21 404.21 122.12L403.3 118.92ZM427.22 60.68H436.71V113.33H427.22V60.68ZM441.45 60.68H448.15L460.95 90.68V60.68H468.88V113.33H462.51L449.64 81.87V113.33H441.45V60.68ZM472.65 96.82V77.06C472.65 66.4 476.55 60.06 487.86 60.06C499.17 60.06 503 66.4 503 77.06V96.82C503 107.42 499.1 114.05 487.85 114.05C476.6 114.05 472.65 107.48 472.65 96.82ZM493.26 99.1V74.85C493.26 70.43 492.54 67.12 487.86 67.12C483.18 67.12 482.4 70.43 482.4 74.85V99.1C482.4 103.45 483.12 106.96 487.86 106.96C492.6 106.96 493.26 103.45 493.26 99.1ZM504 60.68H512.45L519.45 97.93L526 60.68H534.65L524 113.33H514.58L504 60.68ZM542.52 60.68H552.8L563.33 113.33H554.42L552.34 101.18H543.17L541 113.33H532L542.52 60.68ZM551.3 95.07L547.73 73L544.15 95.1L551.3 95.07ZM584.06 79.66V75.11C584.06 70.69 584 67.11 579.12 67.11C574.24 67.11 573.73 70.88 573.73 75.69V98.51C573.73 104.23 574.9 106.96 579.12 106.96C583.87 106.96 584.06 103.26 584.06 98.58V93.83H593.29V98.06C593.29 106.96 590.43 113.53 580.36 114.06V117.31C585.17 117.31 588.42 119.45 588.42 123.48C588.42 128.1 584.32 130.05 579.58 130.05C577.993 130.036 576.417 129.793 574.9 129.33V125.24C576.037 125.589 577.22 125.764 578.41 125.76C580.68 125.76 582.41 125.11 582.41 123.35C582.41 121.01 579.75 120.17 576.69 119.84V113.93C567 112.94 564 106 564 96.5V77.71C564 66.92 567.44 60.1 579 60.1C589.79 60.1 593.23 66.1 593.23 75.24V79.66H584.06ZM604.47 60.68H614.74L625.27 113.33H616.37L614.29 101.18H605.12L603 113.33H594L604.47 60.68ZM606.47 50.74C604.78 50.74 604.2 51.74 604.2 53.4H599.65C599.65 48.72 600.95 45.21 605.17 45.21C608.36 45.21 610.5 48.21 613.3 48.21C614.8 48.21 615.38 47.3 615.38 45.61H619.67C619.67 49.71 618.96 53.8 614.73 53.8C611.36 53.79 609.15 50.74 606.48 50.74H606.47ZM613.24 95.07L609.67 73L606.09 95.1L613.24 95.07ZM625.79 96.82V77.06C625.79 66.4 629.69 60.06 641 60.06C652.31 60.06 656.14 66.36 656.14 77.06V96.82C656.14 107.42 652.24 114.05 641 114.05C629.76 114.05 625.79 107.48 625.79 96.82ZM646.39 99.1V74.85C646.39 70.43 645.68 67.12 641 67.12C636.32 67.12 635.54 70.43 635.54 74.85V99.1C635.54 103.45 636.25 106.96 641 106.96C645.75 106.96 646.39 103.45 646.39 99.1ZM159.94 146.68H182V153.44H169.5V168.59H179.38V175.28H169.5V192.77H182.17V199.33H159.94V146.68ZM197.06 146.68H206.55V199.33H197.06V146.68ZM211.29 146.68H218L230.8 176.68V146.68H238.73V199.33H232.36L219.49 167.87V199.33H211.3L211.29 146.68ZM243.34 146.68H265V153.31H252.89V168.65H262.77V175.35H252.89V199.35H243.34V146.68ZM266.8 146.68H279.48C290.01 146.68 295.99 150.06 295.99 160.68C295.99 166.98 294.43 171.4 289.49 173.42L296.83 199.35H287.21L280.91 175.24H276.36V199.35H266.8V146.68ZM279.41 169.24C284.94 169.24 286.95 166.83 286.95 161.18C286.95 155.85 285.46 153.25 279.95 153.25H276.38V169.25L279.41 169.24ZM307.75 146.68H318L328.53 199.33H319.63L317.55 187.18H308.4L306.25 199.33H297.25L307.75 146.68ZM316.53 181.07L313 159L309.43 181.1L316.53 181.07ZM330.43 146.68H352.53V153.44H340V168.59H349.88V175.28H340V192.77H352.67V199.33H330.43V146.68ZM353.57 184L361.83 182.38C362.09 188.62 363.58 192.65 367.83 192.65C370.88 192.65 372.18 190.57 372.18 187.71C372.18 183.16 369.84 180.62 366.4 177.63L359.77 171.85C356 168.6 353.66 164.96 353.66 159.11C353.66 150.79 358.86 146.11 367.24 146.11C377.12 146.11 379.92 152.74 380.44 160.41L372.18 161.84C371.99 156.9 371.27 153.19 367.05 153.19C364.19 153.19 362.63 155.34 362.63 158.13C362.63 161.71 364.12 163.66 366.92 166.06L373.48 171.85C377.77 175.55 381.35 180.17 381.35 187.12C381.35 194.73 376.02 200.06 368.15 200.06C358.51 200.05 354 194.46 353.57 184ZM388.87 153.77H380.48V146.68H406.68V153.77H398.49V199.33H388.87V153.77ZM408.11 146.68H420.78C431.31 146.68 437.29 150.06 437.29 160.68C437.29 166.98 435.73 171.4 430.79 173.42L438.14 199.35H428.52L422.21 175.24H417.66V199.35H408.11V146.68ZM420.72 169.24C426.24 169.24 428.26 166.83 428.26 161.18C428.26 155.85 426.76 153.25 421.26 153.25H417.68V169.25L420.72 169.24ZM440.61 182.3V146.68H450V183.41C450 188.41 450.58 192.9 455.46 192.9C460.34 192.9 460.98 188.41 460.98 183.41V146.68H470.28V182.3C470.28 193.3 467.22 200.05 455.46 200.05C443.7 200.05 440.61 193.35 440.61 182.3ZM479.67 153.77H471.29V146.68H497.48V153.77H489.29V199.33H479.67V153.77ZM498.52 182.3V146.68H507.88V183.41C507.88 188.41 508.47 192.9 513.34 192.9C518.21 192.9 518.87 188.41 518.87 183.41V146.68H528.16V182.3C528.16 193.3 525.16 200.05 513.34 200.05C501.52 200.05 498.52 193.35 498.52 182.3ZM532.32 146.68H545C555.53 146.68 561.51 150.06 561.51 160.68C561.51 166.98 559.95 171.4 555.01 173.42L562.35 199.35H552.73L546.43 175.24H541.88V199.35H532.32V146.68ZM544.93 169.24C550.46 169.24 552.47 166.83 552.47 161.18C552.47 155.85 550.98 153.25 545.47 153.25H541.9V169.25L544.93 169.24ZM573.27 146.68H583.54L594.07 199.33H585.17L583.09 187.18H573.92L571.77 199.33H562.77L573.27 146.68ZM582 181.07L578.47 159L574.89 181.1L582 181.07ZM545.32 474.1L459.08 424.33V324.76C459.081 323.727 458.81 322.711 458.294 321.816C457.778 320.92 457.035 320.177 456.14 319.66L367 268.18C366.106 267.664 365.092 267.392 364.06 267.392C363.028 267.392 362.014 267.664 361.12 268.18L271.95 319.66C271.054 320.175 270.309 320.918 269.793 321.814C269.277 322.71 269.007 323.726 269.01 324.76V424.33L182.76 474.1C181.864 474.614 181.121 475.355 180.604 476.249C180.088 477.143 179.817 478.158 179.82 479.19V582.19C179.817 583.224 180.087 584.24 180.603 585.136C181.119 586.032 181.864 586.775 182.76 587.29L271.93 638.76C272.823 639.277 273.838 639.549 274.87 639.549C275.902 639.549 276.916 639.277 277.81 638.76L364 589L450.22 638.77C451.114 639.285 452.128 639.557 453.16 639.56C454.193 639.562 455.207 639.29 456.1 638.77L545.28 587.3C546.176 586.785 546.92 586.042 547.437 585.146C547.953 584.25 548.223 583.234 548.22 582.2V479.2C548.228 478.17 547.965 477.156 547.456 476.26C546.946 475.365 546.21 474.619 545.32 474.1ZM358.16 572L286.63 530.71L358.16 489.41V572ZM441.43 427.75L369.92 469V386.43L441.43 427.75ZM358.16 469L286.64 427.72L358.16 386.42V469ZM375.81 479.19L453.2 434.51L530.61 479.18L453.2 523.88L375.81 479.19ZM447.32 417.52L375.81 376.23L447.32 335V417.52ZM352.27 376.23L280.75 417.53V335L352.27 376.23ZM269 623.46L191.59 578.78V489.39L269 534.08V623.46ZM280.76 623.46V540.88L352.28 582.17L280.76 623.46ZM536.5 578.78L459.08 623.46V534.08L536.5 489.39V578.78Z" fill="white"/>
</g>
<defs>
<clipPath id="clip0_342_78">
<rect width="720" height="720" fill="white"/>
</clipPath>
</defs>
</svg>
